icons/commitlint.svg

<svg width="16" height="16" viewBox="0 0 16 16" fill="none" xmlns="http://www.w3.org/2000/svg">
<path fill-rule="evenodd" clip-rule="evenodd" d="M3 2C2.44772 2 2 2.44772 2 3V10C2 10.5523 2.44772 11 3 11H13C13.5523 11 14 10.5523 14 10V3C14 2.44772 13.5523 2 13 2H3ZM12.6875 10V8.6875H11.4091V3H8.78776V4.3125H10.1307V8.6875H8.85227V10H12.6875ZM5.94201 3.87499C7.38617 3.87499 8.28601 4.68109 8.42613 6.01227H7.19759C7.09517 5.34927 6.62635 4.98348 5.94201 4.98348C5.05833 4.98348 4.57335 5.60907 4.57335 6.74925V7.19485C4.57335 8.33482 5.05833 8.96061 5.94201 8.96061C6.63173 8.96061 7.08978 8.61062 7.19759 7.96903H8.42613C8.2914 9.26821 7.39156 9.99999 5.95278 9.99999C4.2663 9.99999 3.3125 9.03502 3.3125 7.30604V6.63785C3.3125 4.91448 4.25553 3.87499 5.94201 3.87499Z" fill="#50B2DD"/>
<path fill-rule="evenodd" clip-rule="evenodd" d="M8 11.5L10.25 13H14V13.5C14 14.0523 13.5523 14.5 13 14.5H9.75L8 13.5L6.25 14.5H3C2.44772 14.5 2 14.0523 2 13.5V13H5.75L8 11.5Z" fill="#CE3D40"/>
</svg>

<svg xmlns="http://www.w3.org/2000/svg" width="16" height="16" fill="none"><path fill="#50B2DD" fill-rule="evenodd" d="M3 2a1 1 0 0 0-1 1v7a1 1 0 0 0 1 1h10a1 1 0 0 0 1-1V3a1 1 0 0 0-1-1H3Zm9.688 8V8.687h-1.279V3H8.788v1.313h1.343v4.375H8.852V10h3.835ZM5.941 3.875c1.444 0 2.344.806 2.484 2.137H7.198c-.103-.663-.572-1.029-1.256-1.029-.884 0-1.369.626-1.369 1.766v.446c0 1.14.485 1.766 1.369 1.766.69 0 1.148-.35 1.256-.992h1.228C8.291 9.269 7.392 10 5.953 10c-1.687 0-2.64-.965-2.64-2.694v-.668c0-1.724.943-2.763 2.629-2.763Z" clip-rule="evenodd"/><path fill="#CE3D40" fill-rule="evenodd" d="m8 11.5 2.25 1.5H14v.5a1 1 0 0 1-1 1H9.75L8 13.5l-1.75 1H3a1 1 0 0 1-1-1V13h3.75L8 11.5Z" clip-rule="evenodd"/></svg>
